public_html/images/youtube.svg

<svg fill="none" height="9" viewBox="0 0 14 9" width="14" xmlns="http://www.w3.org/2000/svg"><path d="m13.1172 1.42969c-.1406-.562502-.586-1.007815-1.125-1.14844-1.0078-.28125-4.9922-.28125-4.9922-.28125s-4.00781 0-5.01562.28125c-.53907.140625-.98438.585938-1.125005 1.14844-.28125.98437-.28125 3.09375-.28125 3.09375s0 2.08594.28125 3.09375c.140625.5625.585935.98437 1.125005 1.125 1.00781.25781 5.01562.25781 5.01562.25781s3.9844 0 4.9922-.25781c.539-.14063.9844-.5625 1.125-1.125.2812-1.00781.2812-3.09375.2812-3.09375s0-2.10938-.2812-3.09375zm-7.4297 4.99219v-3.79688l3.32812 1.89844z" fill="#f00"/></svg>

<svg width="14" height="9" viewBox="0 0 14 9" fill="none" xmlns="http://www.w3.org/2000/svg"><path d="M13.1172 1.42969C12.9766 0.867188 12.5312 0.421875 11.9922 0.28125C10.9844 0 7 0 7 0C7 0 2.99219 0 1.98438 0.28125C1.44531 0.421875 1 0.867188 0.859375 1.42969C0.578125 2.41406 0.578125 4.52344 0.578125 4.52344C0.578125 4.52344 0.578125 6.60938 0.859375 7.61719C1 8.17969 1.44531 8.60156 1.98438 8.74219C2.99219 9 7 9 7 9C7 9 10.9844 9 11.9922 8.74219C12.5312 8.60156 12.9766 8.17969 13.1172 7.61719C13.3984 6.60938 13.3984 4.52344 13.3984 4.52344C13.3984 4.52344 13.3984 2.41406 13.1172 1.42969ZM5.6875 6.42188V2.625L9.01562 4.52344L5.6875 6.42188Z" fill="red"/></svg>
